X: 30
M: 6/8
L: 1/8
K: D
|:\
d>ed dAd | fdf afa | d'c'b agf | e>fe ecA |\
d>ed dAd | fdf afa | d'c'b afd | gec d3 :|
|:\
a>ba afd | a>ba afd | FAd fad' | afd ecA |\
def gab | ad'c' d'af | bge afd | Adc d3 :|
|:\


